svgs/regular/blender.svg

<svg xmlns="http://www.w3.org/2000/svg" viewBox="0 0 512 512"><!-- Font Awesome Pro 6.0.0-alpha2 by @fontawesome - https://fontawesome.com License - https://fontawesome.com/license (Commercial License) --><path d="M425.875 330L512 0H48C21.5 0 0 21.5 0 48V208C0 234.5 21.5 256 48 256H150.25L156.375 327C121 341.125 96 375.625 96 416V480C96 497.625 110.375 512 128 512H448C465.625 512 480 497.625 480 480V416C480 378.125 457.875 345.625 425.875 330ZM48 208V48H132.125L146.125 208H48ZM449.875 48L437.375 96H304C295.2 96 288 103.2 288 112V112C288 120.8 295.2 128 304 128H429L412.25 192H304C295.2 192 288 199.2 288 208V208C288 216.8 295.2 224 304 224H404L378.875 320H204L180.375 48H449.875ZM432 464H144V416C144 389.5 165.5 368 192 368H384C410.5 368 432 389.5 432 416V464ZM288 392C274.75 392 264 402.75 264 416S274.75 440 288 440S312 429.25 312 416S301.25 392 288 392Z"/></svg>

<svg xmlns="http://www.w3.org/2000/svg" viewBox="0 0 512 512"><!--! Font Awesome Pro 6.0.0-alpha3 by @fontawesome - https://fontawesome.com License - https://fontawesome.com/license (Commercial License) --><path d="M425.9 330L512 0H48C21.5 0 0 21.5 0 48v160C0 234.5 21.5 256 48 256h102.3l6.125 71C121 341.1 96 375.6 96 416l.0001 64c0 17.62 14.38 32 32 32h320c17.62 0 32-14.38 32-32L480 416C480 378.1 457.9 345.6 425.9 330zM48 208v-160h84.12l14 160H48zM449.9 48L437.4 96H304C295.2 96 288 103.2 288 111.1S295.2 128 304 128h125l-16.75 64H304C295.2 192 288 199.2 288 207.1C288 216.8 295.2 224 304 224h100l-25.12 96H204L180.4 48H449.9zM432 464h-288V416c0-26.5 21.5-48 48-48h192c26.5 0 48 21.5 48 48V464zM288 392c-13.25 0-24 10.75-24 24s10.75 24 24 24s24-10.75 24-24S301.2 392 288 392z"/></svg>
